!!!OTL-incipit: FAHRET HIN, FAHRET HIN, GRILLEN GEHT MIR AUS DEM SINN
!!!ARE: Europa, Mitteleuropa, Deutschland
!!!SCT: Z0218
!!!TXL: @@DE
!!!YEM: Copyright 1995, estate of Helmut Schaffrath.
**kern	**text
*ICvox	*
*M2/4	*
*k[f#c#g#]	*
*A:	*
!LO:TX:a:t=Deutſch.	!
!LO:TX:a:t=Jägerlied aus dem Anfang des vorigen Jahrhunderts	!
{8ee	Fahret
8cc#	.
4cc#	hin,
=1	=1
8dd	fah-
8b	-ret
4b}	hin,
=2	=2
{8a	Grillen
8b/	.
8cc#	geht
8dd	mir
=3	=3
8ee	aus
8ee	dem
4ee}	Sinn;
=4	=4
{8ee	Bru-
8cc#	-der
4cc#	mein,
=5	=5
8dd	ſchenk
8b	uns
4b}	ein,
=6	=6
{8a	laß
8cc#	uns
8ee	lu-
8ee	-ſtig
=7	=7
4.cc#;	ſeyn.
8r}	.
=8	=8
{8b	Drum,
8b	ihr
8b	Gril-
8b	-len,
=9	=9
8b	wei-
8cc#	-chet
4dd}	weit,
=10	=10
{8cc#	die
8cc#	ihr
8cc#	mei-
8cc#	-ne
=11	=11
8cc#	Ruh
8dd	ʒer-
4ee}	-ſtreut.
=12	=12
{8ee	Jch
8cc#	bin
4cc#	nicht
=13	=13
8dd	ſo
8b	er-
4b}	-picht,
=14	=14
{8a	der
8cc#	auf
8ee	Grillen
8ee	.
=15	=15
4.a	dicht.
8r}	.
==	==
!!!AGN: Jaeger - Lied
!!!ONB: ESAC (Essen Associative Code) Database: ZUCCAL
!!!AMT: simple duple
!!!AIN: vox
!!!EED: Helmut Schaffrath
!!!EEV: 1.0
!!!GTL: III. Soldaten-, Jaeger-, Schiffer-, Fuhrmanns- und Handwerks-Lieder.
!!!URL-scan: https://www.digitale-sammlungen.de/de/view/bsb11160571?page=407
!!!ENC: Anna Maria Matuszewska
!!!EEV: 2025/01/29
*-	*-
